Suru++-Ubuntu/apps/scalable/audacious.svg

<svg width="256" height="256" version="1.1" viewBox="0 0 67.73 67.73" xmlns="http://www.w3.org/2000/svg" xmlns:xlink="http://www.w3.org/1999/xlink">
 <defs>
  <linearGradient id="linearGradient1108" x1="296" x2="296" y1="-212" y2="236" gradientUnits="userSpaceOnUse">
   <stop style="stop-color:#ffffff" offset="0"/>
   <stop style="stop-color:#ffffff;stop-opacity:.09803922" offset=".125"/>
   <stop style="stop-color:#000000;stop-opacity:.09803922" offset=".925"/>
   <stop style="stop-color:#000000;stop-opacity:.49803922" offset="1"/>
  </linearGradient>
  <clipPath id="clipPath1082-3-2">
   <path d="M 361.9375,-212 C 507.2348,-212 528,-191.28677 528,-46.125 V 70.125 C 528,215.28618 507.2348,236 361.9375,236 H 214.0625 C 68.7652,236 48,215.28618 48,70.125 V -46.125 C 48,-191.28677 68.7652,-212 214.0625,-212 Z" style="fill:#8c59d9"/>
  </clipPath>
  <filter id="filter4569" x="-.01" y="-.01" width="1.023" height="1.025" style="color-interpolation-filters:sRGB">
   <feGaussianBlur stdDeviation="1.16"/>
  </filter>
  <filter id="filter913" x="-.02" y="-.03" width="1.046" height="1.05" style="color-interpolation-filters:sRGB">
   <feGaussianBlur stdDeviation="2.32"/>
  </filter>
  <filter id="filter953" x="-.05" y="-.05" width="1.096" height="1.096" style="color-interpolation-filters:sRGB">
   <feGaussianBlur stdDeviation="1.75"/>
  </filter>
 </defs>
 <g transform="translate(0,-229.26666)">
  <path transform="matrix(.26458333 0 0 .26458333 -1.8735229e-8 232.67026)" d="m162.53675 5.5680001c72.64865 0 83.03125 10.356615 83.03125 82.937505v58.125005c0 72.58059-10.3826 82.9375-83.03125 82.9375h-73.937496c-72.648654 0-83.031254-10.35691-83.031254-82.9375v-58.125005c0-72.58089 10.3826-82.937505 83.031254-82.937505z" style="filter:url(#filter913);opacity:.2"/>
  <path transform="matrix(.26458333 0 0 .26458333 -1.8735229e-8 232.67026)" d="m162.53675 3.5680001c72.64865 0 83.03125 10.356615 83.03125 82.937505v58.125005c0 72.58059-10.3826 82.9375-83.03125 82.9375h-73.937496c-72.648654 0-83.031254-10.35691-83.031254-82.9375v-58.125005c0-72.58089 10.3826-82.937505 83.031254-82.937505z" style="filter:url(#filter4569);opacity:.1"/>
  <path d="m23.441882 233.61429c-9.611188 0-15.101641 0.68375-18.19217 3.77032-3.090525 3.08656-3.776514 8.57135-3.776514 18.17356v15.37891c0 9.60218 0.68599 15.087 3.776514 18.17357 3.0905286 3.08658 8.580982 3.77031 18.19217 3.77031h19.562631c9.61119 0 15.101644-0.68373 18.19217-3.77031 3.090527-3.08657 3.776515-8.57139 3.776515-18.17357v-15.37891c0-9.60221-0.685988-15.087-3.776515-18.17356-3.090526-3.08657-8.580982-3.77032-18.19217-3.77032z" style="fill:#4d4d4d"/>
  <path d="m1.473198 270.40792v0.52916c0 9.60218 0.68599 15.087 3.776514 18.17357 3.0905286 3.08658 8.580982 3.77031 18.19217 3.77031h19.562631c9.61119 0 15.101644-0.68373 18.19217-3.77031 3.090527-3.08657 3.776515-8.57139 3.776515-18.17357v-0.52916c0 9.60217-0.685988 15.08699-3.776515 18.17356-3.090526 3.08658-8.58098 3.77032-18.19217 3.77032h-19.562631c-9.611188 0-15.101641-0.68374-18.19217-3.77032-3.090524-3.08657-3.776514-8.57139-3.776514-18.17356z" style="fill:#131313;opacity:.2"/>
  <path transform="matrix(.13229167 0 0 .13229167 -4.876802 261.66013)" d="M 361.9375,-212 C 507.2348,-212 528,-191.28677 528,-46.125 V 70.125 C 528,215.28618 507.2348,236 361.9375,236 H 214.0625 C 68.7652,236 48,215.28618 48,70.125 V -46.125 C 48,-191.28677 68.7652,-212 214.0625,-212 Z" clip-path="url(#clipPath1082-3-2)" style="fill:none;opacity:.4;stroke-linecap:round;stroke-linejoin:round;stroke-width:8;stroke:url(#linearGradient1108)"/>
  <path transform="matrix(.26458333 0 0 .26458333 0 229.26666)" d="m38.097656 127.83398h-32.529297v34.77735c0 34.05297 2.5927169 53.50306 14.273438 64.44922 11.680738 10.94619 32.432063 13.37109 68.757812 13.37109h73.937501c36.32576 0 57.07708-2.4249 68.75781-13.37109 11.68073-10.94616 14.27344-30.39625 14.27344-64.44922v-34.77735h-32.5293c0.00137 0.20146 0.0293 0.39588 0.0293 0.59766 0 3.02031-0.15245 6.00577-0.45117 8.94727-0.29873 2.94149-0.74339 5.83948-1.32617 8.6875-0.58279 2.84802-1.30406 5.64488-2.15625 8.38476-0.8522 2.73989-1.83643 5.42198-2.94336 8.03906-1.10694 2.61709-2.33658 5.17076-3.6836 7.65039-1.34701 2.47964-2.81037 4.88538-4.38281 7.2129-1.57244 2.32751-3.25391 4.57559-5.03711 6.73632-1.7832 2.16074-3.66914 4.23555-5.64844 6.21485-1.97929 1.9793-4.05215 3.86328-6.21289 5.64648-2.16073 1.7832-4.40881 3.46467-6.73633 5.03711-2.32751 1.57244-4.73521 3.0358-7.21484 4.38281-2.47963 1.34702-5.03135 2.57862-7.64844 3.68555-2.61709 1.10694-5.29917 2.08921-8.03906 2.94141-2.73988 0.85219-5.53674 1.57346-8.38477 2.15625-2.84802 0.58279-5.74795 1.02744-8.68945 1.32617-2.94149 0.29872-5.925 0.45117-8.94531 0.45117s-6.00577-0.15245-8.94727-0.45117c-2.94149-0.29873-5.83948-0.74338-8.6875-1.32617s-5.64488-1.30406-8.384762-2.15625c-2.739885-0.8522-5.421973-1.83447-8.039062-2.94141-2.617089-1.10693-5.170759-2.33853-7.650391-3.68555-2.479632-1.34701-4.885376-2.81037-7.212891-4.38281s-4.575591-3.25391-6.736328-5.03711-4.235546-3.66718-6.214844-5.64648c-1.979297-1.9793-3.863286-4.05411-5.646484-6.21485-1.783198-2.16073-3.464671-4.40881-5.037109-6.73632-1.572438-2.32752-3.035796-4.73326-4.382813-7.2129-1.347017-2.47963-2.578612-5.0333-3.685547-7.65039-1.106935-2.61708-2.089214-5.29917-2.941406-8.03906-0.852192-2.73988-1.573461-5.53674-2.15625-8.38476s-1.027447-5.74601-1.326172-8.6875c-0.298725-2.9415-0.451172-5.92696-0.451172-8.94727 0-0.20178 0.027933-0.3962 0.029297-0.59766z" style="fill:#ffffff;opacity:.05"/>
  <g transform="translate(-.07222373 -.21213154)">
   <g transform="matrix(.52916667 0 0 .52916667 -.36793802 229.32548)" style="fill:#131313;filter:url(#filter953);opacity:.3">
    <path d="m63.615799 20.755722c-24.162467 0-43.75 19.587532-43.75 43.749999 0 24.16247 19.587533 43.749999 43.75 43.749999 24.162469 0 43.750001-19.587529 43.750001-43.749999 0-24.162467-19.587532-43.749999-43.750001-43.749999zm2.030066 23.863633c9.902243 0.351359 15.760303 6.630161 16.406251 15.784804 0.728129 10.319727-2.506507 13.006764-1.1186 15.080494 2.898175 4.330351-1.211245 5.465775-3.935861 7.581677-1.694675 1.316046-4.964617 0.712909-6.587349-1.160029-4.930931-2.673959-3.032532 2.463405-13.216152 2.485788-5.293881-0.203438-10.146545-3.787485-11.517517-8.61744-2.102538-7.407183 0.983434-12.87335 9.570313-15.453353 2.483686-0.746242 7.403331-0.295706 9.570311-1.781479 2.04656-1.403257 1.311606-3.424355-1.201461-3.68727-3.604257-0.377081-9.227552 1.157382-12.553274 0.538582-2.66958-0.496692-3.48213-5.277057-1.740048-7.333088 2.850838-3.364661 10.162051-3.217967 14.293321-3.397254 0.695712-0.03019 1.369922-0.06497 2.030066-0.04135zm-1.325758 22.123589c-2.293571 0-4.184424 1.606062-4.184424 3.604387s1.890853 3.64584 4.184424 3.64584c2.293574 0 4.101562-1.647515 4.101562-3.64584s-1.807988-3.604387-4.101562-3.604387z" style="fill:#131313"/>
   </g>
   <g transform="matrix(.52916667 0 0 .52916667 -.36793802 229.32548)">
    <path d="m63.615799 20.755722c-24.162467 0-43.75 19.587532-43.75 43.749999 0 24.16247 19.587533 43.749999 43.75 43.749999 24.162469 0 43.750001-19.587529 43.750001-43.749999 0-24.162467-19.587532-43.749999-43.750001-43.749999zm2.030066 23.863633c9.902243 0.351359 15.760303 6.630161 16.406251 15.784804 0.728129 10.319727-2.506507 13.006764-1.1186 15.080494 2.898175 4.330351-1.211245 5.465775-3.935861 7.581677-1.694675 1.316046-4.964617 0.712909-6.587349-1.160029-4.930931-2.673959-3.032532 2.463405-13.216152 2.485788-5.293881-0.203438-10.146545-3.787485-11.517517-8.61744-2.102538-7.407183 0.983434-12.87335 9.570313-15.453353 2.483686-0.746242 7.403331-0.295706 9.570311-1.781479 2.04656-1.403257 1.311606-3.424355-1.201461-3.68727-3.604257-0.377081-9.227552 1.157382-12.553274 0.538582-2.66958-0.496692-3.48213-5.277057-1.740048-7.333088 2.850838-3.364661 10.162051-3.217967 14.293321-3.397254 0.695712-0.03019 1.369922-0.06497 2.030066-0.04135zm-1.325758 22.123589c-2.293571 0-4.184424 1.606062-4.184424 3.604387s1.890853 3.64584 4.184424 3.64584c2.293574 0 4.101562-1.647515 4.101562-3.64584s-1.807988-3.604387-4.101562-3.604387z" style="fill:#ffffff"/>
   </g>
  </g>
 </g>
</svg>

<svg xmlns="http://www.w3.org/2000/svg" xmlns:xlink="http://www.w3.org/1999/xlink" width="256" height="256" version="1.1" viewBox="0 0 67.73 67.73">
 <defs>
  <linearGradient id="linearGradient1108" x1="296" x2="296" y1="-212" y2="236" gradientUnits="userSpaceOnUse" xlink:href="#linearGradient1013"/>
  <linearGradient id="linearGradient1013">
   <stop style="stop-color:#ffffff" offset="0"/>
   <stop offset=".125" style="stop-color:#ffffff;stop-opacity:0.09803922"/>
   <stop offset=".925" style="stop-color:#000000;stop-opacity:0.09803922"/>
   <stop style="stop-color:#000000;stop-opacity:0.49803922" offset="1"/>
  </linearGradient>
  <clipPath id="clipPath1082-3-2" clipPathUnits="userSpaceOnUse">
   <path style="fill:#8c59d9" d="M 361.9375,-212 C 507.2348,-212 528,-191.28677 528,-46.125 V 70.125 C 528,215.28618 507.2348,236 361.9375,236 H 214.0625 C 68.7652,236 48,215.28618 48,70.125 V -46.125 C 48,-191.28677 68.7652,-212 214.0625,-212 Z"/>
  </clipPath>
  <filter id="filter4569" width="1.023" height="1.025" x="-.01" y="-.01" style="color-interpolation-filters:sRGB">
   <feGaussianBlur stdDeviation="1.16"/>
  </filter>
  <filter id="filter913" width="1.046" height="1.05" x="-.02" y="-.03" style="color-interpolation-filters:sRGB">
   <feGaussianBlur stdDeviation="2.32"/>
  </filter>
  <filter id="filter953" width="1.096" height="1.096" x="-.05" y="-.05" style="color-interpolation-filters:sRGB">
   <feGaussianBlur stdDeviation="1.75"/>
  </filter>
 </defs>
 <g transform="translate(0,-229.26666)">
  <path d="m 162.53675,5.5680001 c 72.64865,0 83.03125,10.3566149 83.03125,82.9375049 v 58.125005 c 0,72.58059 -10.3826,82.9375 -83.03125,82.9375 H 88.599254 C 15.9506,229.56801 5.568,219.2111 5.568,146.63051 V 88.505505 c 0,-72.58089 10.3826,-82.9375049 83.031254,-82.9375049 z" transform="matrix(0.26458333,0,0,0.26458333,-1.8735229e-8,232.67026)" style="opacity:0.2;filter:url(#filter913)"/>
  <path style="opacity:0.1;filter:url(#filter4569)" d="m 162.53675,3.5680001 c 72.64865,0 83.03125,10.3566149 83.03125,82.9375049 v 58.125005 c 0,72.58059 -10.3826,82.9375 -83.03125,82.9375 H 88.599254 C 15.9506,227.56801 5.568,217.2111 5.568,144.63051 V 86.505505 c 0,-72.58089 10.3826,-82.9375049 83.031254,-82.9375049 z" transform="matrix(0.26458333,0,0,0.26458333,-1.8735229e-8,232.67026)"/>
  <path d="m 23.441882,233.61429 c -9.611188,0 -15.1016409,0.68375 -18.19217,3.77032 -3.090525,3.08656 -3.776514,8.57135 -3.776514,18.17356 v 15.37891 c 0,9.60218 0.68599,15.087 3.776514,18.17357 3.0905286,3.08658 8.580982,3.77031 18.19217,3.77031 h 19.562631 c 9.61119,0 15.101644,-0.68373 18.19217,-3.77031 3.090527,-3.08657 3.776515,-8.57139 3.776515,-18.17357 v -15.37891 c 0,-9.60221 -0.685988,-15.087 -3.776515,-18.17356 -3.090526,-3.08657 -8.580982,-3.77032 -18.19217,-3.77032 z" style="fill:#4d4d4d"/>
  <path d="m 1.473198,270.40792 v 0.52916 c 0,9.60218 0.68599,15.087 3.776514,18.17357 3.0905286,3.08658 8.580982,3.77031 18.19217,3.77031 h 19.562631 c 9.61119,0 15.101644,-0.68373 18.19217,-3.77031 3.090527,-3.08657 3.776515,-8.57139 3.776515,-18.17357 v -0.52916 c 0,9.60217 -0.685988,15.08699 -3.776515,18.17356 -3.090526,3.08658 -8.58098,3.77032 -18.19217,3.77032 H 23.441882 c -9.611188,0 -15.1016414,-0.68374 -18.19217,-3.77032 -3.090524,-3.08657 -3.776514,-8.57139 -3.776514,-18.17356 z" style="opacity:0.2;fill:#131313"/>
  <path style="opacity:0.4;fill:none;stroke:url(#linearGradient1108);stroke-width:8;stroke-linecap:round;stroke-linejoin:round" d="M 361.9375,-212 C 507.2348,-212 528,-191.28677 528,-46.125 V 70.125 C 528,215.28618 507.2348,236 361.9375,236 H 214.0625 C 68.7652,236 48,215.28618 48,70.125 V -46.125 C 48,-191.28677 68.7652,-212 214.0625,-212 Z" clip-path="url(#clipPath1082-3-2)" transform="matrix(0.13229167,0,0,0.13229167,-4.876802,261.66013)"/>
  <path d="M 38.097656 127.83398 L 5.5683594 127.83398 L 5.5683594 162.61133 C 5.5683594 196.6643 8.1610763 216.11439 19.841797 227.06055 C 31.522535 238.00674 52.27386 240.43164 88.599609 240.43164 L 162.53711 240.43164 C 198.86287 240.43164 219.61419 238.00674 231.29492 227.06055 C 242.97565 216.11439 245.56836 196.6643 245.56836 162.61133 L 245.56836 127.83398 L 213.03906 127.83398 C 213.04043 128.03544 213.06836 128.22986 213.06836 128.43164 C 213.06836 131.45195 212.91591 134.43741 212.61719 137.37891 C 212.31846 140.3204 211.8738 143.21839 211.29102 146.06641 C 210.70823 148.91443 209.98696 151.71129 209.13477 154.45117 C 208.28257 157.19106 207.29834 159.87315 206.19141 162.49023 C 205.08447 165.10732 203.85483 167.66099 202.50781 170.14062 C 201.1608 172.62026 199.69744 175.026 198.125 177.35352 C 196.55256 179.68103 194.87109 181.92911 193.08789 184.08984 C 191.30469 186.25058 189.41875 188.32539 187.43945 190.30469 C 185.46016 192.28399 183.3873 194.16797 181.22656 195.95117 C 179.06583 197.73437 176.81775 199.41584 174.49023 200.98828 C 172.16272 202.56072 169.75502 204.02408 167.27539 205.37109 C 164.79576 206.71811 162.24404 207.94971 159.62695 209.05664 C 157.00986 210.16358 154.32778 211.14585 151.58789 211.99805 C 148.84801 212.85024 146.05115 213.57151 143.20312 214.1543 C 140.3551 214.73709 137.45517 215.18174 134.51367 215.48047 C 131.57218 215.77919 128.58867 215.93164 125.56836 215.93164 C 122.54805 215.93164 119.56259 215.77919 116.62109 215.48047 C 113.6796 215.18174 110.78161 214.73709 107.93359 214.1543 C 105.08557 213.57151 102.28871 212.85024 99.548828 211.99805 C 96.808943 211.14585 94.126855 210.16358 91.509766 209.05664 C 88.892677 207.94971 86.339007 206.71811 83.859375 205.37109 C 81.379743 204.02408 78.973999 202.56072 76.646484 200.98828 C 74.318969 199.41584 72.070893 197.73437 69.910156 195.95117 C 67.749419 194.16797 65.67461 192.28399 63.695312 190.30469 C 61.716015 188.32539 59.832026 186.25058 58.048828 184.08984 C 56.26563 181.92911 54.584157 179.68103 53.011719 177.35352 C 51.439281 175.026 49.975923 172.62026 48.628906 170.14062 C 47.281889 167.66099 46.050294 165.10732 44.943359 162.49023 C 43.836424 159.87315 42.854145 157.19106 42.001953 154.45117 C 41.149761 151.71129 40.428492 148.91443 39.845703 146.06641 C 39.262914 143.21839 38.818256 140.3204 38.519531 137.37891 C 38.220806 134.43741 38.068359 131.45195 38.068359 128.43164 C 38.068359 128.22986 38.096292 128.03544 38.097656 127.83398 z" transform="matrix(0.26458333,0,0,0.26458333,0,229.26666)" style="opacity:0.05;fill:#ffffff"/>
  <g transform="translate(-0.07222373,-0.21213154)">
   <g transform="matrix(0.52916667,0,0,0.52916667,-0.36793802,229.32548)" style="opacity:0.3;fill:#131313;filter:url(#filter953)">
    <path d="m 63.615799,20.755722 c -24.162467,0 -43.75,19.587532 -43.75,43.749999 0,24.16247 19.587533,43.749999 43.75,43.749999 24.162469,0 43.750001,-19.587529 43.750001,-43.749999 0,-24.162467 -19.587532,-43.749999 -43.750001,-43.749999 z m 2.030066,23.863633 c 9.902243,0.351359 15.760303,6.630161 16.406251,15.784804 0.728129,10.319727 -2.506507,13.006764 -1.1186,15.080494 2.898175,4.330351 -1.211245,5.465775 -3.935861,7.581677 -1.694675,1.316046 -4.964617,0.712909 -6.587349,-1.160029 -4.930931,-2.673959 -3.032532,2.463405 -13.216152,2.485788 -5.293881,-0.203438 -10.146545,-3.787485 -11.517517,-8.61744 -2.102538,-7.407183 0.983434,-12.87335 9.570313,-15.453353 2.483686,-0.746242 7.403331,-0.295706 9.570311,-1.781479 2.04656,-1.403257 1.311606,-3.424355 -1.201461,-3.68727 -3.604257,-0.377081 -9.227552,1.157382 -12.553274,0.538582 -2.66958,-0.496692 -3.48213,-5.277057 -1.740048,-7.333088 2.850838,-3.364661 10.162051,-3.217967 14.293321,-3.397254 0.695712,-0.03019 1.369922,-0.06497 2.030066,-0.04135 z m -1.325758,22.123589 c -2.293571,0 -4.184424,1.606062 -4.184424,3.604387 0,1.998325 1.890853,3.64584 4.184424,3.64584 2.293574,0 4.101562,-1.647515 4.101562,-3.64584 0,-1.998325 -1.807988,-3.604387 -4.101562,-3.604387 z" style="fill:#131313"/>
   </g>
   <g transform="matrix(0.52916667,0,0,0.52916667,-0.36793802,229.32548)">
    <path style="fill:#ffffff" d="m 63.615799,20.755722 c -24.162467,0 -43.75,19.587532 -43.75,43.749999 0,24.16247 19.587533,43.749999 43.75,43.749999 24.162469,0 43.750001,-19.587529 43.750001,-43.749999 0,-24.162467 -19.587532,-43.749999 -43.750001,-43.749999 z m 2.030066,23.863633 c 9.902243,0.351359 15.760303,6.630161 16.406251,15.784804 0.728129,10.319727 -2.506507,13.006764 -1.1186,15.080494 2.898175,4.330351 -1.211245,5.465775 -3.935861,7.581677 -1.694675,1.316046 -4.964617,0.712909 -6.587349,-1.160029 -4.930931,-2.673959 -3.032532,2.463405 -13.216152,2.485788 -5.293881,-0.203438 -10.146545,-3.787485 -11.517517,-8.61744 -2.102538,-7.407183 0.983434,-12.87335 9.570313,-15.453353 2.483686,-0.746242 7.403331,-0.295706 9.570311,-1.781479 2.04656,-1.403257 1.311606,-3.424355 -1.201461,-3.68727 -3.604257,-0.377081 -9.227552,1.157382 -12.553274,0.538582 -2.66958,-0.496692 -3.48213,-5.277057 -1.740048,-7.333088 2.850838,-3.364661 10.162051,-3.217967 14.293321,-3.397254 0.695712,-0.03019 1.369922,-0.06497 2.030066,-0.04135 z m -1.325758,22.123589 c -2.293571,0 -4.184424,1.606062 -4.184424,3.604387 0,1.998325 1.890853,3.64584 4.184424,3.64584 2.293574,0 4.101562,-1.647515 4.101562,-3.64584 0,-1.998325 -1.807988,-3.604387 -4.101562,-3.604387 z"/>
   </g>
  </g>
 </g>
</svg>
